16x16/apps/com.github.iortcw.iortcw.svg

<svg xmlns="http://www.w3.org/2000/svg" width="16" height="16" version="1.1">
 <circle style="fill:#acacac" cx="8.5" cy="8.5" r="7.5"/>
 <path style="fill:#be3539" d="M 6 2.3222656 L 6 5 L 5 5 L 5 4 L 5 3 L 1 3 L 1.5 4 L 4 4 L 4 5 L 2 5 L 2.5 6 L 6 6 L 6.5253906 6 L 7.0253906 6 L 7.0253906 3.5371094 L 7.4003906 3.2753906 L 6 2.3222656 z M 11 2.3222656 L 9.5996094 3.2753906 L 9.9746094 3.5371094 L 9.9746094 6 L 10.474609 6 L 11 6 L 14.5 6 L 15 5 L 13 5 L 13 4 L 15.5 4 L 16 3 L 12 3 L 12 4 L 12 5 L 11 5 L 11 2.3222656 z M 8 5 L 8 6 L 9 6 L 9 5 L 8 5 z M 3 7 L 3.5 8 L 6 8 L 6 14.353516 L 8 13.228516 L 8 14.361328 L 11 12.222656 L 11 8 L 13.5 8 L 14 7 L 10 7 L 10 11.740234 L 9.0117188 12.285156 L 8.9882812 7 L 8 7 L 8 11.751953 L 7.0253906 12.285156 L 7 7 L 6.4707031 7 L 4.9492188 7 L 3 7 z"/>
</svg>

<svg xmlns="http://www.w3.org/2000/svg" width="16" height="16"><circle style="fill:#acacac" cx="8.5" cy="8.5" r="7.5"/><path style="fill:#be3539" d="M6 2.322V5H5V3H1l.5 1H4v1H2l.5 1h4.525V3.537l.375-.262L6 2.322zm5 0-1.4.953.375.262V6H14.5l.5-1h-2V4h2.5l.5-1h-4v2h-1V2.322zM8 5v1h1V5H8zM3 7l.5 1H6v6.354l2-1.125v1.132l3-2.138V8h2.5l.5-1h-4v4.74l-.988.545L8.988 7H8v4.752l-.975.533L7 7H3z"/></svg>
